X:8
T:Duchess of Bedford’s Waltz,The. RHu.008
S:R.Hughes MS,1823,Whitchurch,Shrops.
R:waltz
N:Last note of each line is dotted cr in MS.
A:Whitchurch, Shropshire
Z:Neil Brookes 2006
M:3/8
L:1/8
Q:3/8=50
K:G
d|d2B|B2G|AGA|B2G|d2B|B2G|AGA|G2::!
d|d2g|e2a|fef|g2b|d2g|e2a|fef|g2::!
b|c’2b|a2g|f2g|a2b|c’2a|b2g|agf|g2:|

